icons/folder-context.svg

<svg xmlns="http://www.w3.org/2000/svg" viewBox="0 0 32 32"><path fill="#00897b" d="m13.844 7.536-1.288-1.072A2 2 0 0 0 11.276 6H4a2 2 0 0 0-2 2v16a2 2 0 0 0 2 2h24a2 2 0 0 0 2-2V10a2 2 0 0 0-2-2H15.124a2 2 0 0 1-1.28-.464Z"/><path fill="#b2dfdb" d="M30 22v-2a2 2 0 0 0-2-2h-6v-2h2v-6h-6v6h2v2h-6a2 2 0 0 0-2 2v2h-2v6h6v-6h-2v-2h6v2h-2v6h6v-6h-2v-2h6v2h-2v6h6v-6Z"/></svg>

<svg xmlns="http://www.w3.org/2000/svg" viewBox="0 0 32 32">
  <path d="M13.84376,7.53645l-1.28749-1.0729A2,2,0,0,0,11.27591,6H4A2,2,0,0,0,2,8V24a2,2,0,0,0,2,2H28a2,2,0,0,0,2-2V10a2,2,0,0,0-2-2H15.12412A2,2,0,0,1,13.84376,7.53645Z" style="fill: #00897b"/>
  <path d="M30,22V20a2,2,0,0,0-2-2H22V16h2V10H18v6h2v2H14a2,2,0,0,0-2,2v2H10v6h6V22H14V20h6v2H18v6h6V22H22V20h6v2H26v6h6V22Z" style="fill: #b2dfdb"/>
</svg>
